X:3870
T:Danza de Santana
R:Danza
C:Tradicional
S:Msica Tradicional Asturiana, (C) Tello & Tito. Asturies, 2001.
S:http://pagina.de/MusTradAst <telloytito@asturies.org>
A:Asturies
B:La Cancin Asturiana, Fernando Noceda
Z:La Cancin Asturiana, F.N.
M:6/8
L:1/8
Q:1/4=150
K:Gm
|: G3/2G/2G Bdc|B2 A4 :|
[M:4/4]
|GGGG BABA|
[M:6/8]
|ccc dBB|A2 G4|
